images/social-youtube.svg

<svg width="28" height="28" viewBox="0 0 28 28" fill="none" xmlns="http://www.w3.org/2000/svg">
<path d="M16.0037 13.7913L13.1963 12.4813C12.9513 12.3675 12.75 12.495 12.75 12.7662V15.2338C12.75 15.505 12.9513 15.6325 13.1963 15.5188L16.0025 14.2087C16.2488 14.0938 16.2487 13.9063 16.0037 13.7913ZM14 2C7.3725 2 2 7.3725 2 14C2 20.6275 7.3725 26 14 26C20.6275 26 26 20.6275 26 14C26 7.3725 20.6275 2 14 2ZM14 18.875C7.8575 18.875 7.75 18.3213 7.75 14C7.75 9.67875 7.8575 9.125 14 9.125C20.1425 9.125 20.25 9.67875 20.25 14C20.25 18.3213 20.1425 18.875 14 18.875Z" fill="#FCFCFC"/>
<rect x="1" y="1" width="26" height="26" rx="13" stroke="#FCFCFC" stroke-opacity="0.3" stroke-width="2"/>
</svg>

<svg xmlns="http://www.w3.org/2000/svg" width="28" height="28" fill="none"><path fill="#FCFCFC" d="m16.004 13.791-2.808-1.31c-.245-.114-.446.014-.446.285v2.468c0 .271.201.399.446.285l2.807-1.31c.246-.115.246-.303 0-.418ZM14 2C7.372 2 2 7.372 2 14s5.372 12 12 12 12-5.372 12-12S20.628 2 14 2Zm0 16.875c-6.143 0-6.25-.554-6.25-4.875S7.857 9.125 14 9.125c6.142 0 6.25.554 6.25 4.875s-.108 4.875-6.25 4.875Z"/><rect width="26" height="26" x="1" y="1" stroke="#FCFCFC" stroke-opacity=".3" stroke-width="2" rx="13"/></svg>
